symbols/web/shield_moon/materialsymbolsoutlined/shield_moon_wght500grad200fill1_40px.svg

<svg xmlns="http://www.w3.org/2000/svg" height="40" width="40"><path d="M20 37.667q-6.208-1.5-10.229-7.084Q5.75 25 5.75 18.292V7.667L20 2.292l14.292 5.375v10.625q0 6.708-4.042 12.291-4.042 5.584-10.25 7.084Zm.875-11.292q1.5 0 2.917-.625 1.416-.625 2.541-1.833.25-.292.188-.542-.063-.25-.479-.333-1.584-.334-3.042-1.292-1.458-.958-2.375-2.542-.875-1.458-1.021-3.187-.146-1.729.438-3.313.125-.416-.084-.604-.208-.187-.625-.104-2.666.583-4.208 2.646-1.542 2.062-1.542 4.521 0 3 2.146 5.104t5.146 2.104Z"/></svg>

<svg xmlns="http://www.w3.org/2000/svg" height="40" width="40"><path d="M20 37.667Q13.792 36.167 9.771 30.583Q5.75 25 5.75 18.292V7.667L20 2.292L34.292 7.667V18.292Q34.292 25 30.25 30.583Q26.208 36.167 20 37.667ZM20.875 26.375Q22.375 26.375 23.792 25.75Q25.208 25.125 26.333 23.917Q26.583 23.625 26.521 23.375Q26.458 23.125 26.042 23.042Q24.458 22.708 23 21.75Q21.542 20.792 20.625 19.208Q19.75 17.75 19.604 16.021Q19.458 14.292 20.042 12.708Q20.167 12.292 19.958 12.104Q19.75 11.917 19.333 12Q16.667 12.583 15.125 14.646Q13.583 16.708 13.583 19.167Q13.583 22.167 15.729 24.271Q17.875 26.375 20.875 26.375Z"/></svg>
